src/img/decor/icon-category-2.svg

<svg width="65" height="52" viewBox="0 0 65 52" fill="none" xmlns="http://www.w3.org/2000/svg">
<path fill-rule="evenodd" clip-rule="evenodd" d="M3.49999 1.7342C3.49999 0.776464 2.71641 -5.2e-05 1.74999 -5.2e-05C0.78338 -5.2e-05 -6.5e-05 0.776464 -6.5e-05 1.7342C-6.5e-05 2.69194 0.78338 3.4684 1.74999 3.4684C2.71641 3.4684 3.49999 2.69194 3.49999 1.7342ZM15.8125 1.7342C15.8125 0.776464 15.0219 -5.2e-05 14.0469 -5.2e-05C13.0717 -5.2e-05 12.2812 0.776464 12.2812 1.7342C12.2812 2.69194 13.0717 3.4684 14.0469 3.4684C15.0219 3.4684 15.8125 2.69194 15.8125 1.7342ZM26.3437 -5.2e-05C27.3102 -5.2e-05 28.0937 0.776464 28.0937 1.7342C28.0937 2.69194 27.3102 3.4684 26.3437 3.4684C25.3772 3.4684 24.5937 2.69194 24.5937 1.7342C24.5937 0.776464 25.3772 -5.2e-05 26.3437 -5.2e-05ZM40.4061 1.7342C40.4061 0.776464 39.6227 -5.2e-05 38.6563 -5.2e-05C37.6897 -5.2e-05 36.9062 0.776464 36.9062 1.7342C36.9062 2.69194 37.6897 3.4684 38.6563 3.4684C39.6227 3.4684 40.4061 2.69194 40.4061 1.7342ZM50.953 -5.2e-05C51.9282 -5.2e-05 52.7188 0.776464 52.7188 1.7342C52.7188 2.69194 51.9282 3.4684 50.953 3.4684C49.9779 3.4684 49.1875 2.69194 49.1875 1.7342C49.1875 0.776464 49.9779 -5.2e-05 50.953 -5.2e-05ZM65 1.7342C65 0.776464 64.2164 -5.2e-05 63.2499 -5.2e-05C62.2835 -5.2e-05 61.4999 0.776464 61.4999 1.7342C61.4999 2.69194 62.2835 3.4684 63.2499 3.4684C64.2164 3.4684 65 2.69194 65 1.7342ZM1.74999 12.1247C2.71641 12.1247 3.49999 12.9012 3.49999 13.8594C3.49999 14.8171 2.71641 15.5936 1.74999 15.5936C0.78338 15.5936 -6.5e-05 14.8171 -6.5e-05 13.8594C-6.5e-05 12.9012 0.78338 12.1247 1.74999 12.1247ZM15.8125 13.8594C15.8125 12.9012 15.0219 12.1247 14.0469 12.1247C13.0717 12.1247 12.2812 12.9012 12.2812 13.8594C12.2812 14.8171 13.0717 15.5936 14.0469 15.5936C15.0219 15.5936 15.8125 14.8171 15.8125 13.8594ZM26.3437 12.1247C27.3102 12.1247 28.0937 12.9012 28.0937 13.8594C28.0937 14.8171 27.3102 15.5936 26.3437 15.5936C25.3772 15.5936 24.5937 14.8171 24.5937 13.8594C24.5937 12.9012 25.3772 12.1247 26.3437 12.1247ZM40.4061 13.8594C40.4061 12.9012 39.6227 12.1247 38.6563 12.1247C37.6897 12.1247 36.9062 12.9012 36.9062 13.8594C36.9062 14.8171 37.6897 15.5936 38.6563 15.5936C39.6227 15.5936 40.4061 14.8171 40.4061 13.8594ZM50.953 12.1247C51.9282 12.1247 52.7188 12.9012 52.7188 13.8594C52.7188 14.8171 51.9282 15.5936 50.953 15.5936C49.9779 15.5936 49.1875 14.8171 49.1875 13.8594C49.1875 12.9012 49.9779 12.1247 50.953 12.1247ZM65 13.8594C65 12.9012 64.2164 12.1247 63.2499 12.1247C62.2835 12.1247 61.4999 12.9012 61.4999 13.8594C61.4999 14.8171 62.2835 15.5936 63.2499 15.5936C64.2164 15.5936 65 14.8171 65 13.8594ZM1.74999 24.2809C2.71641 24.2809 3.49999 25.0505 3.49999 25.9998C3.49999 26.9491 2.71641 27.7187 1.74999 27.7187C0.78338 27.7187 -6.5e-05 26.9491 -6.5e-05 25.9998C-6.5e-05 25.0505 0.78338 24.2809 1.74999 24.2809ZM15.8125 25.9998C15.8125 25.0505 15.0219 24.2809 14.0469 24.2809C13.0717 24.2809 12.2812 25.0505 12.2812 25.9998C12.2812 26.9491 13.0717 27.7187 14.0469 27.7187C15.0219 27.7187 15.8125 26.9491 15.8125 25.9998ZM26.3437 24.2809C27.3102 24.2809 28.0937 25.0505 28.0937 25.9998C28.0937 26.9491 27.3102 27.7187 26.3437 27.7187C25.3772 27.7187 24.5937 26.9491 24.5937 25.9998C24.5937 25.0505 25.3772 24.2809 26.3437 24.2809ZM40.4061 25.9998C40.4061 25.0505 39.6227 24.2809 38.6563 24.2809C37.6897 24.2809 36.9062 25.0505 36.9062 25.9998C36.9062 26.9491 37.6897 27.7187 38.6563 27.7187C39.6227 27.7187 40.4061 26.9491 40.4061 25.9998ZM50.953 24.2809C51.9282 24.2809 52.7188 25.0505 52.7188 25.9998C52.7188 26.9491 51.9282 27.7187 50.953 27.7187C49.9779 27.7187 49.1875 26.9491 49.1875 25.9998C49.1875 25.0505 49.9779 24.2809 50.953 24.2809ZM65 25.9998C65 25.0505 64.2164 24.2809 63.2499 24.2809C62.2835 24.2809 61.4999 25.0505 61.4999 25.9998C61.4999 26.9491 62.2835 27.7187 63.2499 27.7187C64.2164 27.7187 65 26.9491 65 25.9998ZM1.74999 36.406C2.71641 36.406 3.49999 37.1825 3.49999 38.1402C3.49999 39.0984 2.71641 39.8749 1.74999 39.8749C0.78338 39.8749 -6.5e-05 39.0984 -6.5e-05 38.1402C-6.5e-05 37.1825 0.78338 36.406 1.74999 36.406ZM15.8125 38.1402C15.8125 37.1825 15.0219 36.406 14.0469 36.406C13.0717 36.406 12.2812 37.1825 12.2812 38.1402C12.2812 39.0984 13.0717 39.8749 14.0469 39.8749C15.0219 39.8749 15.8125 39.0984 15.8125 38.1402ZM26.3437 36.406C27.3102 36.406 28.0937 37.1825 28.0937 38.1402C28.0937 39.0984 27.3102 39.8749 26.3437 39.8749C25.3772 39.8749 24.5937 39.0984 24.5937 38.1402C24.5937 37.1825 25.3772 36.406 26.3437 36.406ZM40.4061 38.1402C40.4061 37.1825 39.6227 36.406 38.6563 36.406C37.6897 36.406 36.9062 37.1825 36.9062 38.1402C36.9062 39.0984 37.6897 39.8749 38.6563 39.8749C39.6227 39.8749 40.4061 39.0984 40.4061 38.1402ZM50.953 36.406C51.9282 36.406 52.7188 37.1825 52.7188 38.1402C52.7188 39.0984 51.9282 39.8749 50.953 39.8749C49.9779 39.8749 49.1875 39.0984 49.1875 38.1402C49.1875 37.1825 49.9779 36.406 50.953 36.406ZM65 38.1402C65 37.1825 64.2164 36.406 63.2499 36.406C62.2835 36.406 61.4999 37.1825 61.4999 38.1402C61.4999 39.0984 62.2835 39.8749 63.2499 39.8749C64.2164 39.8749 65 39.0984 65 38.1402ZM1.74999 48.5312C2.71641 48.5312 3.49999 49.3076 3.49999 50.2654C3.49999 51.2231 2.71641 51.9996 1.74999 51.9996C0.78338 51.9996 -6.5e-05 51.2231 -6.5e-05 50.2654C-6.5e-05 49.3076 0.78338 48.5312 1.74999 48.5312ZM15.8125 50.2654C15.8125 49.3076 15.0219 48.5312 14.0469 48.5312C13.0717 48.5312 12.2812 49.3076 12.2812 50.2654C12.2812 51.2231 13.0717 51.9996 14.0469 51.9996C15.0219 51.9996 15.8125 51.2231 15.8125 50.2654ZM26.3437 48.5312C27.3102 48.5312 28.0937 49.3076 28.0937 50.2654C28.0937 51.2231 27.3102 51.9996 26.3437 51.9996C25.3772 51.9996 24.5937 51.2231 24.5937 50.2654C24.5937 49.3076 25.3772 48.5312 26.3437 48.5312ZM40.4061 50.2654C40.4061 49.3076 39.6227 48.5312 38.6563 48.5312C37.6897 48.5312 36.9062 49.3076 36.9062 50.2654C36.9062 51.2231 37.6897 51.9996 38.6563 51.9996C39.6227 51.9996 40.4061 51.2231 40.4061 50.2654ZM50.953 48.5312C51.9282 48.5312 52.7188 49.3076 52.7188 50.2654C52.7188 51.2231 51.9282 51.9996 50.953 51.9996C49.9779 51.9996 49.1875 51.2231 49.1875 50.2654C49.1875 49.3076 49.9779 48.5312 50.953 48.5312ZM65 50.2654C65 49.3076 64.2164 48.5312 63.2499 48.5312C62.2835 48.5312 61.4999 49.3076 61.4999 50.2654C61.4999 51.2231 62.2835 51.9996 63.2499 51.9996C64.2164 51.9996 65 51.2231 65 50.2654Z" fill="#FE3E57"/>
</svg>

<svg width="65" height="52" fill="none" xmlns="http://www.w3.org/2000/svg"><path fill-rule="evenodd" clip-rule="evenodd" d="M3.5 1.734C3.5.776 2.716 0 1.75 0 .783 0 0 .776 0 1.734s.783 1.734 1.75 1.734c.966 0 1.75-.776 1.75-1.734zm12.313 0C15.813.776 15.021 0 14.046 0S12.28.776 12.28 1.734s.79 1.734 1.766 1.734c.975 0 1.765-.776 1.765-1.734zM26.343 0c.967 0 1.75.776 1.75 1.734s-.783 1.734-1.75 1.734c-.966 0-1.75-.776-1.75-1.734S25.378 0 26.344 0zm14.063 1.734c0-.958-.783-1.734-1.75-1.734-.966 0-1.75.776-1.75 1.734s.784 1.734 1.75 1.734c.967 0 1.75-.776 1.75-1.734zM50.953 0c.975 0 1.766.776 1.766 1.734s-.79 1.734-1.766 1.734c-.975 0-1.766-.776-1.766-1.734S49.977 0 50.953 0zM65 1.734C65 .776 64.216 0 63.25 0c-.967 0-1.75.776-1.75 1.734s.783 1.734 1.75 1.734c.966 0 1.75-.776 1.75-1.734zM1.75 12.124c.966 0 1.75.777 1.75 1.735 0 .958-.784 1.735-1.75 1.735-.967 0-1.75-.777-1.75-1.735 0-.958.783-1.734 1.75-1.734zm14.063 1.735c0-.958-.791-1.734-1.766-1.734s-1.766.776-1.766 1.734.79 1.735 1.766 1.735c.975 0 1.765-.777 1.765-1.735zm10.53-1.734c.967 0 1.75.776 1.75 1.734s-.783 1.735-1.75 1.735c-.966 0-1.75-.777-1.75-1.735 0-.958.784-1.734 1.75-1.734zm14.063 1.734c0-.958-.783-1.734-1.75-1.734-.966 0-1.75.776-1.75 1.734s.784 1.735 1.75 1.735c.967 0 1.75-.777 1.75-1.735zm10.547-1.734c.975 0 1.766.776 1.766 1.734s-.79 1.735-1.766 1.735c-.975 0-1.766-.777-1.766-1.735 0-.958.79-1.734 1.766-1.734zM65 13.859c0-.958-.784-1.734-1.75-1.734-.967 0-1.75.776-1.75 1.734s.783 1.735 1.75 1.735c.966 0 1.75-.777 1.75-1.735zM1.75 24.281c.966 0 1.75.77 1.75 1.719 0 .95-.784 1.719-1.75 1.719-.967 0-1.75-.77-1.75-1.72 0-.948.783-1.718 1.75-1.718zM15.813 26c0-.95-.791-1.72-1.766-1.72s-1.766.77-1.766 1.72.79 1.719 1.766 1.719c.975 0 1.765-.77 1.765-1.72zm10.53-1.72c.967 0 1.75.77 1.75 1.72s-.783 1.719-1.75 1.719c-.966 0-1.75-.77-1.75-1.72 0-.948.784-1.718 1.75-1.718zM40.407 26c0-.95-.783-1.72-1.75-1.72-.966 0-1.75.77-1.75 1.72s.784 1.719 1.75 1.719c.967 0 1.75-.77 1.75-1.72zm10.547-1.72c.975 0 1.766.77 1.766 1.72s-.79 1.719-1.766 1.719c-.975 0-1.766-.77-1.766-1.72 0-.948.79-1.718 1.766-1.718zM65 26c0-.95-.784-1.72-1.75-1.72-.967 0-1.75.77-1.75 1.72s.783 1.719 1.75 1.719c.966 0 1.75-.77 1.75-1.72zM1.75 36.406c.966 0 1.75.776 1.75 1.734s-.784 1.735-1.75 1.735c-.967 0-1.75-.777-1.75-1.735 0-.958.783-1.734 1.75-1.734zm14.063 1.734c0-.958-.791-1.734-1.766-1.734s-1.766.776-1.766 1.734.79 1.735 1.766 1.735c.975 0 1.765-.777 1.765-1.735zm10.53-1.734c.967 0 1.75.776 1.75 1.734s-.783 1.735-1.75 1.735c-.966 0-1.75-.777-1.75-1.735 0-.958.784-1.734 1.75-1.734zm14.063 1.734c0-.958-.783-1.734-1.75-1.734-.966 0-1.75.776-1.75 1.734s.784 1.735 1.75 1.735c.967 0 1.75-.777 1.75-1.735zm10.547-1.734c.975 0 1.766.776 1.766 1.734s-.79 1.735-1.766 1.735c-.975 0-1.766-.777-1.766-1.735 0-.958.79-1.734 1.766-1.734zM65 38.14c0-.958-.784-1.734-1.75-1.734-.967 0-1.75.776-1.75 1.734s.783 1.735 1.75 1.735c.966 0 1.75-.777 1.75-1.735zM1.75 48.531c.966 0 1.75.777 1.75 1.734C3.5 51.223 2.716 52 1.75 52 .783 52 0 51.223 0 50.265c0-.957.783-1.734 1.75-1.734zm14.063 1.734c0-.957-.791-1.734-1.766-1.734s-1.766.777-1.766 1.734c0 .958.79 1.735 1.766 1.735.975 0 1.765-.777 1.765-1.735zm10.53-1.734c.967 0 1.75.777 1.75 1.734 0 .958-.783 1.735-1.75 1.735-.966 0-1.75-.777-1.75-1.735 0-.957.784-1.734 1.75-1.734zm14.063 1.734c0-.957-.783-1.734-1.75-1.734-.966 0-1.75.777-1.75 1.734 0 .958.784 1.735 1.75 1.735.967 0 1.75-.777 1.75-1.735zm10.547-1.734c.975 0 1.766.777 1.766 1.734 0 .958-.79 1.735-1.766 1.735-.975 0-1.766-.777-1.766-1.735 0-.957.79-1.734 1.766-1.734zM65 50.265c0-.957-.784-1.734-1.75-1.734-.967 0-1.75.777-1.75 1.734 0 .958.783 1.735 1.75 1.735.966 0 1.75-.777 1.75-1.735z" fill="#FE3E57"/></svg>
